48x48/apps/deepin-cloudprint-config-helper.svg

<svg height="48" width="48" xmlns="http://www.w3.org/2000/svg"><path d="m18.5 5a10.5 10.5 0 0 0 -10.494 10.383 8.5 8.5 0 0 0 -6.006 8.117 8.5 8.5 0 0 0 8 8.475v.025h28v-.018a8.5 8.5 0 0 0 8-8.482 8.5 8.5 0 0 0 -6.531-8.26 10.5 10.5 0 0 0 -9.969-7.24 10.5 10.5 0 0 0 -3.184.508 10.5 10.5 0 0 0 -7.816-3.508z" opacity=".2"/><g fill="#f4f4f7"><circle cx="10.5" cy="22.5" r="8.5"/><circle cx="18.5" cy="14.5" r="10.5"/><circle cx="29.5" cy="17.5" r="10.5"/><circle cx="37.5" cy="22.5" r="8.5"/><path d="m10 19h28v12h-28z"/></g><path d="m8 28v15c0 1.108.892 2 2 2h28c1.108 0 2-.892 2-2v-15z" opacity=".2"/><path d="m6 22h36v4h-36z" fill="#29565b"/><rect fill="#4cb009" height="4" rx="1.5" width="4" x="6" y="17"/><path d="m8 24v18c0 1.108.892 2 2 2h28c1.108 0 2-.892 2-2v-18z" fill="#2995ff"/><path d="m12 38h21v2h-21zm0-5h17v2h-17zm0-5h24v2h-24z" fill="#f4f4f7" opacity=".5"/><path d="m18.5 4a10.5 10.5 0 0 0 -10.494 10.383 8.5 8.5 0 0 0 -6.006 8.117 8.5 8.5 0 0 0 .021.43 8.5 8.5 0 0 1 5.985-7.547 10.5 10.5 0 0 1 10.494-10.383 10.5 10.5 0 0 1 7.816 3.508 10.5 10.5 0 0 1 3.184-.508 10.5 10.5 0 0 1 9.969 7.24 8.5 8.5 0 0 1 6.506 7.764 8.5 8.5 0 0 0 .025-.504 8.5 8.5 0 0 0 -6.531-8.26 10.5 10.5 0 0 0 -9.969-7.24 10.5 10.5 0 0 0 -3.184.508 10.5 10.5 0 0 0 -7.816-3.508z" fill="#f4f4f7" opacity=".2"/></svg>

<svg height="48" width="48" xmlns="http://www.w3.org/2000/svg">
    <path d="M18.5 5A10.5 10.5 0 0 0 8.006 15.383 8.5 8.5 0 0 0 2 23.5a8.5 8.5 0 0 0 8 8.475V32h28v-.018a8.5 8.5 0 0 0 8-8.482 8.5 8.5 0 0 0-6.531-8.26A10.5 10.5 0 0 0 29.5 8a10.5 10.5 0 0 0-3.184.508A10.5 10.5 0 0 0 18.5 5z" opacity=".2"/>
    <g fill="#f4f4f7">
        <circle cx="10.5" cy="22.5" r="8.5"/>
        <circle cx="18.5" cy="14.5" r="10.5"/>
        <circle cx="29.5" cy="17.5" r="10.5"/>
        <circle cx="37.5" cy="22.5" r="8.5"/>
        <path d="M10 19h28v12H10z"/>
    </g>
    <path d="M8 28v15c0 1.108.892 2 2 2h28c1.108 0 2-.892 2-2V28z" opacity=".2"/>
    <path d="M6 22h36v4H6z" fill="#29565b"/>
    <rect fill="#4cb009" height="4" rx="1.5" width="4" x="6" y="17"/>
    <path d="M8 24v18c0 1.108.892 2 2 2h28c1.108 0 2-.892 2-2V24z" fill="#2995ff"/>
    <g fill="#f4f4f7">
        <path d="M12 38h21v2H12zm0-5h17v2H12zm0-5h24v2H12z" opacity=".5"/>
        <path d="M18.5 4A10.5 10.5 0 0 0 8.006 14.383 8.5 8.5 0 0 0 2 22.5a8.5 8.5 0 0 0 .021.43 8.5 8.5 0 0 1 5.985-7.547A10.5 10.5 0 0 1 18.5 5a10.5 10.5 0 0 1 7.816 3.508A10.5 10.5 0 0 1 29.5 8a10.5 10.5 0 0 1 9.969 7.24 8.5 8.5 0 0 1 6.506 7.764A8.5 8.5 0 0 0 46 22.5a8.5 8.5 0 0 0-6.531-8.26A10.5 10.5 0 0 0 29.5 7a10.5 10.5 0 0 0-3.184.508A10.5 10.5 0 0 0 18.5 4z" opacity=".2"/>
    </g>
</svg>
